X:1
T:Paradismuren.
T:Paradismuren.
T:Agathe Backer Grøndahl, Op.67.No. 5.
C:Agathe Backer Grøndahl, Op.67.No. 5.
%%score [ 1 2 3 ]
L:1/8
Q:3/8=56
M:6/8
K:Eb
V:1 treble nm="S1"
V:2 treble nm="S2"
V:3 treble nm="A"
V:1
"^Tranquillo.."!mf! B, | E2 E A3/2 G/ F | B3 E2 B | c3/2 B/ A B2 G | F3- F2 F | %5
w: Bag|Af- ten- sky- er- nes|Bjer- ge, der|lig- ger et him- melsk|Land; * der|
 B2!<(! B e3/2 d/ c!<)! | f3 B2 f | (g>f) e f3/2 f/ d | B3 z2!mp! F | A2 A G3/2 G/ G | B3 A2 A | %11
w: Pa- ra- di- set hen-|ba- res En-|gang * fra Mor- ge- nens|Strand. Bag|Sky- bjerg- mu- re- nes|Taar- ne, der|
 c c c c2 B | A3- A2 B | B2 =A _A3/2 A/ G | c3 d2 e |"^cresc." B2 B B3/2 B/ B | %16
w: lig- ger en him- melsk|Borg; * den|staar i Pa- ra- dis-|ha- ven, der|bor ei Nag el- ler|
!<(! (Bd) e (f>c) d!<)! | e3 c2"^sost." B |!>(! B3 z2!mf! B,!>)! | E2 E A3/2 G/ F | B3 E2 B | %21
w: Sorg, * der bor * ei|Nag el- ler|Sorg. Men|did Kun Sjæ- le- ne|fly- ve som|
 c3/2 B/ A B2 G | F3- F2 F | B2 B!<(! e3/2 d/ c!<)! | f3 B2 f | (g>f) e f3/2 f/ d | B3 z2!mp! F | %27
w: sei- red i Ver- dens|Kamp, * Did|naar ei Nat- mul- mets|Aan- der I|U- * veirs- sky- er- nes|Damp. Men|
 A2 A G3/2 G/ G | B3 A2 A | c c c c2 B | A3- A2 B | B2 =A _A3/2 A/ G | c3 d2 e | %33
w: sti- ger Aan- den i|Kam- pen og|lut- tres i Stri- dens|Gny, _ Den|o- ver Pa- ra- dis-|mu- ren hen-|
"^cresc." B2 B B3/2 B/ B | (Bd) e (f>c) d |"^sost." e3 A2 G |!>(! G3- G2 z!>)! |] %37
w: flyr som Sva- ne- duns|Sky, * hen- flyr * som|Sva- ne- duns|Sky. _|
V:2
!mf! B, | B,2 B, E3/2 E/ E | E3 E2 E | E3/2 E/ E E2 E | D3- D2 E | F2!<(! F B3/2 B/ B!<)! | %6
w: Bag|Af- ten- sky- er- nes|Bjer- ge, der|lig- ger et him- melsk|Land; * der|Pa- ra- di- set hen-|
 B3 B2 B | B2 B B3/2 B/ B | B3 z2!mp! D | C2 D E3/2 E/ E | D3 E2 D | C C D (=EF) G | F3- F2 F | %13
w: ba- res En-|gang fra Mor- ge- nens|Strand. Bag|Sky- bjerg- mu- re- nes|Taar- ne, der|lig- ger en him- * melsk|Borg; * den|
 =E2 _E E3/2 E/ E | ^F3 F2 F |"^cresc." (G=F) G A3/2 E/ F |!<(! (GA) G (F>A) A!<)! | %17
w: staar i Pa- ra- dis-|ha- ven, der|bor * ei Nag el- ler|Sorg, * der bor * ei|
 G3 =A2"^sost." F |!>(! F3 z2!mf! B,!>)! | B,2 B, E3/2 E/ E | E3 E2 E | E3/2 E/ E E2 E | D3- D2 E | %23
w: Nag el- ler|Sorg. Men|did Kun Sjæ- le- ne|fly- ve som|sei- red i Ver- dens|Kamp, * Did|
 F2 F!<(! B3/2 B/ B!<)! | B3 B2 B | B2 B B3/2 B/ B | B3 z2!mp! D | C2 D E3/2 E/ E | D3 E2 D | %29
w: naar ei Nat- mul- mets|Aan- der I|U- veirs- sky- er- nes|Damp. Men|sti- ger Aan- den i|Kam- pen og|
 C C D (=EF) G | F3- F2 F | =E2 _E E3/2 E/ E | ^F3 F2 F |"^cresc." (G=F) G A3/2 E/ F | %34
w: lut- tres i Stri- * dens|Gny, _ Den|o- ver Pa- ra- dis-|mu- ren hen-|flyr * som Sva- ne- duns|
 (GA) G (F>A) A |"^sost." A3 C2 B, |!>(! B,3- B,2 z!>)! |] %37
w: Sky, * hen- flyr * som|Sva- ne- duns|Sky. _|
V:3
!mf! B, | G,2 G, C3/2 B,/ A, | G,3 G,2 G, | A,3/2 G,/ F, G,2 =A, | B,3- B,2 C | %5
w: Bag|Af- ten- sky- er- nes|Bjer- ge, der|lig- ger et him- melsk|Land; * der|
 D2!<(! D G3/2 F/ E!<)! | D3 D2 D | (E>D) C D3/2 D/ F | B3 z2!mp! B, | F,2 =B, C3/2 C/ C | %10
w: Pa- ra- di- set hen-|ba- res En-|gang * fra Mor- ge- nens|Strand. Bag|Sky- bjerg- mu- re- nes|
 G,3 C2 B, | A, A, B, (CD)=E | F3- F2 B, | _B,2 C _C3/2 C/ B, | =A,3 A,2 A, | %15
w: Taar- ne, der|lig- ger en him- * melsk|Borg; * den|staar i Pa- ra- dis-|ha- ven, der|
"^cresc." (B,D) E F3/2 C/ D |!<(! EB, C (A,>F) =B,!<)! | C3 F2"^sost." D |!>(! D3 z2!mf! A,!>)! | %19
w: bor * ei Nag el- ler|Sorg, * der bor * ei|Nag el- ler|Sorg. Men|
 G,2 G, C3/2 B,/ A, | G,3 G,2 G, | A,3/2 G,/ F, G,2 =A, | B,3- B,2 C | D2 D!<(! G3/2 F/ E!<)! | %24
w: did Kun Sjæ- le- ne|fly- ve som|sei- red i Ver- dens|Kamp, * Did|naar ei Nat- mul- mets|
 D3 D2 D | (E>D) C D3/2 D/ F | B3 z2!mp! B, | F,2 =B, C3/2 C/ C | G,3 C2 B, | A, A, B, CD =E | %30
w: Aan- der I|U- * veirs- sky- er- nes|Damp. Men|sti- ger Aan- den i|Kam- pen og|lut- tres i Stri- * dens|
 F3- F2 D | _D2 C _C3/2 C/ B, | =A,3 A,2 A, |"^cresc." (B,D) E F3/2 C/ D | (EB,) C (A,>F) B, | %35
w: Gny, _ Den|o- ver Pa- ra- dis-|mu- ren hen-|flyr * som Sva- ne- duns|Sky, * hen- flyr * som|
"^sost." (C2 D) E2 E |!>(! E3- E2 z!>)! |] %37
w: Sva- * ne- duns|Sky. _|

